Numix-GalliumOS/22/panel/copy-paused.svg

<?xml version="1.0" encoding="UTF-8" standalone="no"?>
<!-- Generator: Adobe Illustrator 15.1.0, SVG Export Plug-In . SVG Version: 6.00 Build 0)  -->

<svg
   xmlns:dc="http://purl.org/dc/elements/1.1/"
   xmlns:cc="http://creativecommons.org/ns#"
   xmlns:rdf="http://www.w3.org/1999/02/22-rdf-syntax-ns#"
   xmlns:svg="http://www.w3.org/2000/svg"
   xmlns="http://www.w3.org/2000/svg"
   xmlns:sodipodi="http://sodipodi.sourceforge.net/DTD/sodipodi-0.dtd"
   xmlns:inkscape="http://www.inkscape.org/namespaces/inkscape"
   version="1.1"
   id="Layer_1"
   x="0px"
   y="0px"
   width="22"
   height="22"
   viewBox="0 0 22 22"
   enable-background="new 0 0 24 24"
   xml:space="preserve"
   inkscape:version="0.91 r"
   sodipodi:docname="copy-paused.svg"><metadata
     id="metadata29"><rdf:RDF><cc:Work
         rdf:about=""><dc:format>image/svg+xml</dc:format><dc:type
           rdf:resource="http://purl.org/dc/dcmitype/StillImage" /><dc:title /></cc:Work></rdf:RDF></metadata><defs
     id="defs27" /><sodipodi:namedview
     pagecolor="#ffffff"
     bordercolor="#666666"
     borderopacity="1"
     objecttolerance="10"
     gridtolerance="10"
     guidetolerance="10"
     inkscape:pageopacity="0"
     inkscape:pageshadow="2"
     inkscape:window-width="1366"
     inkscape:window-height="747"
     id="namedview25"
     showgrid="false"
     inkscape:zoom="19.666667"
     inkscape:cx="1.5021259"
     inkscape:cy="13.879426"
     inkscape:window-x="0"
     inkscape:window-y="21"
     inkscape:window-maximized="1"
     inkscape:current-layer="Layer_1" /><g
     style="fill:#ececec;fill-opacity:1;opacity:0.4"
     id="g15"
     transform="matrix(0.88289963,0,0,0.88294066,0.40520444,0.73537336)"><path
       style="fill:#ececec;fill-opacity:1"
       d="m 19.980469,1.5 -4.957031,6.0410156 c 0.2993,0.2249071 0.475807,0.5779229 0.476562,0.953125 l 0,0.4648438 L 16.439453,9.8125 20.5,1.8710938 Z M 5.0625,6.7207031 1.5,9.8125 1.5,11 5.0625,9.8125 6.5,15.5625 6.5,8.4941406 C 6.5001604,8.3824561 6.5159392,8.2713466 6.546875,8.1640625 L 6.25,7.4355469 Z M 15.75,11 l -0.25,0.199219 0,6.90625 c -6.24e-4,0.332427 -0.13936,0.649538 -0.382812,0.875 L 20.140625,20.5 20.466797,20.5 20.5,20.230469 16.9375,12.1875 Z"
       transform="matrix(1.1326316,0,0,1.1325789,-0.45894734,-0.83286838)"
       id="polygon17"
       inkscape:connector-curvature="0"
       sodipodi:nodetypes="ccccccccccccccccccccccccc" /></g><g
     id="g4190"
     transform="translate(6.5,12.3)" /><g
     id="g4198"
     transform="translate(6.5,12.2)"><path
       inkscape:connector-curvature="0"
       id="rect4137"
       d="M 1.660884,-3.9999996 A 0.66095012,0.99481504 0 0 0 1,-3.005284 L 1,5.005284 A 0.66095012,0.99481504 0 0 0 1.660884,6 L 2.839116,6 A 0.66095012,0.99481504 0 0 0 3.5,5.005284 l 0,-8.010568 A 0.66095012,0.99481504 0 0 0 2.839116,-3.9999996 l -1.178232,0 z"
       style="color:#000000;font-style:normal;font-variant:normal;font-weight:normal;font-stretch:normal;font-size:medium;line-height:normal;font-family:sans-serif;text-indent:0;text-align:start;text-decoration:none;text-decoration-line:none;text-decoration-style:solid;text-decoration-color:#000000;letter-spacing:normal;word-spacing:normal;text-transform:none;direction:ltr;block-progression:tb;writing-mode:lr-tb;baseline-shift:baseline;text-anchor:start;white-space:normal;clip-rule:nonzero;display:inline;overflow:visible;visibility:visible;opacity:1;isolation:auto;mix-blend-mode:normal;color-interpolation:sRGB;color-interpolation-filters:linearRGB;solid-color:#000000;solid-opacity:1;fill:#ececec;fill-opacity:1;fill-rule:nonzero;stroke:none;stroke-width:2.5;stroke-linecap:round;stroke-linejoin:round;stroke-miterlimit:4;stroke-dasharray:none;stroke-dashoffset:0;stroke-opacity:1;color-rendering:auto;image-rendering:auto;shape-rendering:auto;text-rendering:auto;enable-background:accumulate" /><path
       inkscape:connector-curvature="0"
       id="rect4137-8"
       d="M 6.1608841,-3.9999996 A 0.66095012,0.99481504 0 0 0 5.5,-3.005284 l 0,8.010568 A 0.66095012,0.99481504 0 0 0 6.1608841,6 l 1.178232,0 a 0.66095012,0.99481504 0 0 0 0.660884,-0.994716 l 0,-8.010568 a 0.66095012,0.99481504 0 0 0 -0.660884,-0.9947156 l -1.178232,0 z"
       style="color:#000000;font-style:normal;font-variant:normal;font-weight:normal;font-stretch:normal;font-size:medium;line-height:normal;font-family:sans-serif;text-indent:0;text-align:start;text-decoration:none;text-decoration-line:none;text-decoration-style:solid;text-decoration-color:#000000;letter-spacing:normal;word-spacing:normal;text-transform:none;direction:ltr;block-progression:tb;writing-mode:lr-tb;baseline-shift:baseline;text-anchor:start;white-space:normal;clip-rule:nonzero;display:inline;overflow:visible;visibility:visible;opacity:1;isolation:auto;mix-blend-mode:normal;color-interpolation:sRGB;color-interpolation-filters:linearRGB;solid-color:#000000;solid-opacity:1;fill:#ececec;fill-opacity:1;fill-rule:nonzero;stroke:none;stroke-width:2.5;stroke-linecap:round;stroke-linejoin:round;stroke-miterlimit:4;stroke-dasharray:none;stroke-dashoffset:0;stroke-opacity:1;color-rendering:auto;image-rendering:auto;shape-rendering:auto;text-rendering:auto;enable-background:accumulate" /></g></svg>

<!-- Generator: Adobe Illustrator 15.1.0, SVG Export Plug-In . SVG Version: 6.00 Build 0)  -->
<svg xmlns="http://www.w3.org/2000/svg" viewBox="0 0 22 22" style="enable-background:new 0 0 24 24">
 <g transform="matrix(0.88289963,0,0,0.88294066,0.40520444,0.73537336)" style="fill:#ececec;opacity:0.4;fill-opacity:1">
  <path d="m 19.98 1.5 -4.957 6.04 c 0.299 0.225 0.476 0.578 0.477 0.953 l 0 0.465 l 0.939 0.854 4.061 -7.941 m -15.438 4.85 -3.563 3.092 0 1.188 3.563 -1.188 1.438 5.75 0 -7.07 c 0 -0.112 0.016 -0.223 0.047 -0.33 l -0.297 -0.729 m 9.5 3.564 l -0.25 0.199 0 6.906 c -0.001 0.332 -0.139 0.65 -0.383 0.875 l 5.02 1.52 0.326 0 0.033 -0.27 -3.563 -8.04" transform="matrix(1.1326316,0,0,1.1325789,-0.45894734,-0.83286838)"/>
 </g>
 <g transform="translate(6.5,12.2)">
  <path d="M 1.661 -4 A 0.661 0.995 0 0 0 1 -3.01 L 1 5.01 A 0.661 0.995 0 0 0 1.661 6 L 2.839 6 A 0.661 0.995 0 0 0 3.5 5.01 l 0 -8.01 A 0.661 0.995 0 0 0 2.839 -4 l -1.178 0 z" mix-blend-mode="normal" isolation="auto" white-space="normal" solid-opacity="1" solid-color="#000000" style="visibility:visible;shape-rendering:auto;color-interpolation-filters:linearRGB;fill:#ececec;opacity:1;image-rendering:auto;fill-opacity:1;stroke:none;display:inline;color:#000;fill-rule:nonzero;color-rendering:auto;color-interpolation:sRGB"/>
  <path d="M 6.161 -4 A 0.661 0.995 0 0 0 5.5 -3.01 l 0 8.01 A 0.661 0.995 0 0 0 6.161 6 l 1.178 0 a 0.661 0.995 0 0 0 0.661 -0.995 l 0 -8.01 a 0.661 0.995 0 0 0 -0.661 -0.995 l -1.178 0 z" mix-blend-mode="normal" isolation="auto" white-space="normal" solid-opacity="1" solid-color="#000000" style="visibility:visible;shape-rendering:auto;color-interpolation-filters:linearRGB;fill:#ececec;opacity:1;image-rendering:auto;fill-opacity:1;stroke:none;display:inline;color:#000;fill-rule:nonzero;color-rendering:auto;color-interpolation:sRGB"/>
 </g>
</svg>
